packages/flat-components/src/components/LoginPage/LoginContent/icons/logo.svg

<?xml version="1.0" encoding="UTF-8"?>
<svg width="32px" height="32px" viewBox="0 0 32 32" version="1.1" xmlns="http://www.w3.org/2000/svg" xmlns:xlink="http://www.w3.org/1999/xlink">
    <title>编组 4</title>
    <g id="Flat-单窗口" stroke="none" stroke-width="1" fill="none" fill-rule="evenodd">
        <g id="登录" transform="translate(-704.000000, -161.000000)">
            <g id="编组-18" transform="translate(584.000000, 161.000000)">
                <g id="编组-4" transform="translate(120.000000, 0.000000)">
                    <path d="M4.36363636,23.2727273 L8.72727273,23.2727273 L8.72727273,23.2727273 L8.72727273,27.6363636 C8.72727273,30.0463335 6.77360618,32 4.36363636,32 C1.95366655,32 7.56164791e-14,30.0463335 7.53213429e-14,27.6363636 C7.50262067e-14,25.2263938 1.95366655,23.2727273 4.36363636,23.2727273 Z" id="矩形备份-2" fill="#D1E1FA"></path>
                    <path d="M7.26408641,11.6363636 L20.3636364,11.6363636 L20.3636364,11.6363636 L20.3636364,16.0086409 C20.3636364,18.4138385 18.4138385,20.3636364 16.0086409,20.3636364 L7.26408641,20.3636364 C4.85888881,20.3636364 2.90909091,18.4138385 2.90909091,16.0086409 L2.90909091,15.9913591 C2.90909091,13.5861615 4.85888881,11.6363636 7.26408641,11.6363636 Z" id="矩形备份" fill="#83B1FD"></path>
                    <path d="M10.1731773,7.53213429e-14 L32,7.53213429e-14 L32,7.53213429e-14 L32,4.37227723 C32,6.77747483 30.0502021,8.72727273 27.6450045,8.72727273 L10.1731773,8.72727273 C7.76797972,8.72727273 5.81818182,6.77747483 5.81818182,4.37227723 L5.81818182,4.3549955 C5.81818182,1.9497979 7.76797972,7.66513489e-14 10.1731773,7.53213429e-14 Z" id="矩形" fill="#3381FF"></path>
                </g>
            </g>
        </g>
    </g>
</svg>

<svg width="32" height="32" xmlns="http://www.w3.org/2000/svg"><g fill="none" fill-rule="evenodd"><path d="M4.364 23.273h4.363v4.363a4.364 4.364 0 1 1-4.363-4.363Z" fill="#D1E1FA"/><path d="M7.264 11.636h13.1v4.373a4.355 4.355 0 0 1-4.355 4.355H7.264a4.355 4.355 0 0 1-4.355-4.355v-.018a4.355 4.355 0 0 1 4.355-4.355Z" fill="#83B1FD"/><path d="M10.173 0H32v4.372a4.355 4.355 0 0 1-4.355 4.355H10.173a4.355 4.355 0 0 1-4.355-4.355v-.017A4.355 4.355 0 0 1 10.173 0Z" fill="#3381FF"/></g></svg>
